X:199
T:Lowden THO3.199, The
O:England;London
M:2/4
L:1/8
Z:vmp. Peter Dunk 2011.from a transcription by Fynn Titford-Mock 2006-9
B:Thompson's Compleat Collection of 200 Favourite Country Dances Vol. III.1765-72
Q:1/4=140
K:A
e>aec|B>ABc|d>cde|fgaf|efec|fgaf|ecBc|AA/A/ A2:|
|:ceAe|Be^de|ceAe|BE E2|ceAe|B^dfa|gfe^d|ee/e/ e2:|
|:aaag|fffe|ceAe|BE E2|aaag|fffc|BABc|AA/A/ A2:|
|:CEAc|FAdf|ecec|BE E2|CEAc|FAdf|ecBc|AA/A/ A2:|

